_cdn/img/vt-facial.svg

<svg width="70" height="70" viewBox="0 0 70 70" fill="none" xmlns="http://www.w3.org/2000/svg">
<g clip-path="url(#clip0)">
<path d="M12.0633 48.3735L9.17699 41.6383C8.74566 40.6615 7.94395 39.896 6.94823 39.5103C5.9525 39.1246 4.84433 39.1502 3.86749 39.5815C2.89065 40.0128 2.12517 40.8145 1.73944 41.8103C1.35371 42.806 1.37933 43.9142 1.81066 44.891C7.12716 56.5868 7.38616 57.8538 9.74399 60.2093L19.194 69.6593C19.4127 69.8782 19.7094 70.0011 20.0188 70.0012H32.6667C32.9761 70.0012 33.2728 69.8783 33.4916 69.6595C33.7104 69.4407 33.8333 69.1439 33.8333 68.8345C33.9903 66.469 33.8606 64.0931 33.4472 61.7587C34.4797 61.8567 35.5203 61.8567 36.5528 61.7587C36.05 63.8937 36.1667 65.205 36.1667 68.8333C36.1667 69.1428 36.2896 69.4395 36.5084 69.6583C36.7272 69.8771 37.0239 70 37.3333 70H49.9858C50.2952 69.9999 50.5919 69.877 50.8107 69.6582L60.2607 60.2082C62.615 57.8527 62.8028 56.742 68.194 44.8898C68.6253 43.913 68.6509 42.8048 68.2652 41.8091C67.8795 40.8134 67.114 40.0117 66.1372 39.5803C65.1603 39.149 64.0522 39.1234 63.0564 39.5091C62.0607 39.8949 61.259 40.6603 60.8277 41.6372L57.9367 48.3735C57.2667 47.91 56.5084 47.5897 55.709 47.4325C54.9097 47.2753 54.0865 47.2847 53.291 47.46C53.8308 46.136 54.289 44.7801 54.663 43.4C56.9788 42.9333 62.5893 40.8998 62.5893 32.0833C62.5893 29.0955 62.069 25.4135 59.0975 25.0075C63.2977 18.5069 64.9761 10.6948 63.8167 3.04267L63.35 0.913499C63.2922 0.653446 63.1471 0.421008 62.9389 0.254822C62.7307 0.0886365 62.4719 -0.00128726 62.2055 -1.66321e-06H7.79449C7.52909 4.38809e-05 7.27164 0.090576 7.06463 0.256653C6.85762 0.42273 6.71342 0.654425 6.65582 0.913499L6.16582 3.13017C5.02715 10.7603 6.71268 18.5437 10.906 25.0192C7.96366 25.4578 7.45382 29.1293 7.45382 32.088C7.45382 40.908 13.069 42.938 15.3872 43.4047C15.7633 44.7886 16.2234 46.1484 16.765 47.4763C15.9621 47.2899 15.129 47.2734 14.3193 47.4279C13.5096 47.5824 12.7412 47.9045 12.0633 48.3735ZM31.5 67.6667H20.4972L11.3972 58.5597C9.49199 56.6592 9.49432 56.1552 3.93516 43.925C3.84538 43.7216 3.79654 43.5025 3.79142 43.2803C3.78631 43.058 3.82502 42.8369 3.90535 42.6296C3.98568 42.4223 4.10606 42.2329 4.2596 42.0721C4.41315 41.9113 4.59686 41.7824 4.80024 41.6926C5.00363 41.6028 5.2227 41.554 5.44496 41.5489C5.66722 41.5437 5.88831 41.5825 6.09561 41.6628C6.30291 41.7431 6.49236 41.8635 6.65314 42.017C6.81392 42.1706 6.94288 42.3543 7.03266 42.5577C11.7588 53.5873 9.92132 50.9005 19.1893 60.1743C19.2969 60.2858 19.4257 60.3746 19.568 60.4358C19.7104 60.4969 19.8634 60.5291 20.0184 60.5305C20.1733 60.5318 20.3269 60.5023 20.4703 60.4436C20.6137 60.385 20.7439 60.2983 20.8535 60.1888C20.963 60.0793 21.0496 59.949 21.1083 59.8056C21.1669 59.6622 21.1965 59.5086 21.1951 59.3537C21.1938 59.1988 21.1616 59.0457 21.1004 58.9034C21.0393 58.761 20.9504 58.6323 20.839 58.5247C14.448 52.1348 14.1458 51.9575 13.1717 50.4653C13.805 49.9395 14.6019 49.6512 15.425 49.6499C16.2481 49.6486 17.0459 49.9345 17.6808 50.4583C20.1108 52.6865 22.918 54.4642 25.9712 55.7083C28.7 56.6148 31.5 60.151 31.5 65.1V67.6667ZM32.6165 59.2958C32.0803 57.9765 31.2796 56.781 30.2637 55.783C29.2478 54.7849 28.0383 54.0056 26.7097 53.4928C24.417 52.5654 22.2895 51.2731 20.4097 49.6662C16.401 42.5635 15.8853 34.0037 15.8795 25.8475C18.3517 21.4912 24.836 11.4427 35 5.31183C45.1862 11.4882 51.6833 21.5518 54.1637 25.9198C54.145 34.2032 53.6503 42.3698 49.693 49.588C47.7851 51.2283 45.623 52.5472 43.2915 53.4928C41.9618 54.0066 40.7514 54.7873 39.7349 55.7867C38.7184 56.7861 37.9174 57.9832 37.3812 59.304C35.8018 59.5448 34.195 59.542 32.6165 59.2958ZM56.8283 50.4595C55.8588 51.9458 55.5777 52.1022 49.161 58.5188C48.9485 58.7389 48.8309 59.0336 48.8335 59.3395C48.8362 59.6454 48.9589 59.938 49.1752 60.1543C49.3915 60.3706 49.6841 60.4933 49.99 60.496C50.2959 60.4986 50.5906 60.381 50.8107 60.1685C59.99 50.9903 58.2388 53.5932 62.9673 42.5577C63.0571 42.3543 63.1861 42.1706 63.3468 42.017C63.5076 41.8635 63.6971 41.7431 63.9044 41.6628C64.1117 41.5825 64.3328 41.5437 64.555 41.5489C64.7773 41.554 64.9964 41.6028 65.1997 41.6926C65.4031 41.7824 65.5868 41.9113 65.7404 42.0721C65.8939 42.2329 66.0143 42.4223 66.0946 42.6296C66.175 42.8369 66.2137 43.058 66.2086 43.2803C66.2034 43.5025 66.1546 43.7216 66.0648 43.925C60.5885 55.9732 60.5547 56.6125 58.6098 58.5597L49.5028 67.6667H38.5V65.1C38.4602 62.5674 39.2784 60.0957 40.8217 58.0872C43.5575 54.6665 44.4302 57.099 52.3192 50.4583C52.9534 49.9337 53.7508 49.6468 54.574 49.647C55.3971 49.6472 56.1943 49.9345 56.8283 50.4595ZM60.256 32.0833C60.256 37.9575 57.4082 40.0598 55.2907 40.8135C56.0789 36.6596 56.4726 32.4404 56.4667 28.2123C57.5458 27.4458 58.5025 27.1262 59.0333 27.3828C59.3192 27.5205 60.256 28.2695 60.256 32.0833ZM61.2722 2.33333C62.0367 6.19173 62.0069 10.1655 61.1845 14.0119C60.3621 17.8584 58.7643 21.4969 56.4888 24.7053C56.378 15.9915 54.0762 10.0217 49.4492 6.482C49.2033 6.29403 48.8929 6.21141 48.5861 6.25232C48.2794 6.29324 48.0015 6.45433 47.8135 6.70017C47.6255 6.946 47.5429 7.25644 47.5838 7.56318C47.6247 7.86993 47.7858 8.14786 48.0317 8.33583C51.4045 10.9153 53.3377 15.1363 53.9408 21.1108C49.2625 14.0058 42.0373 6.43767 34.4983 2.33333H61.2722ZM8.73016 2.33333H24.6423C22.0393 4.05749 19.7176 6.17261 17.759 8.60417C17.6632 8.72382 17.592 8.86117 17.5493 9.00836C17.5066 9.15555 17.4934 9.30971 17.5103 9.46203C17.5272 9.61435 17.5739 9.76184 17.6478 9.8961C17.7217 10.0304 17.8213 10.1487 17.941 10.2445C18.0606 10.3403 18.198 10.4115 18.3452 10.4542C18.4924 10.4969 18.6465 10.5101 18.7989 10.4932C18.9512 10.4763 19.0987 10.4296 19.2329 10.3557C19.3672 10.2818 19.4856 10.1822 19.5813 10.0625C22.1891 6.84239 25.4741 4.23615 29.2028 2.429C30.3882 2.89567 31.5478 3.42183 32.6783 4.00867C22.8853 10.3133 16.6308 19.7318 13.6955 24.9667C11.3495 21.7416 9.69718 18.0654 8.8426 14.17C7.98801 10.2745 7.94972 6.2443 8.73016 2.33333ZM9.78716 32.0833C9.78716 28.2648 10.7205 27.5158 11.0122 27.3782C11.5325 27.1273 12.509 27.4517 13.5788 28.2077C13.573 32.4377 13.9671 36.6588 14.756 40.8147C12.6385 40.0657 9.78716 37.9645 9.78716 32.0833Z" fill="#333333"/>
<path d="M21.5215 25.3575C22.1238 25.0548 22.7801 24.8743 23.4525 24.8267C24.125 24.779 24.8002 24.8651 25.4391 25.0798L29.9646 26.5883C30.2586 26.6861 30.5793 26.6631 30.8563 26.5244C31.1333 26.3857 31.3439 26.1426 31.4416 25.8487C31.5394 25.5547 31.5164 25.234 31.3777 24.957C31.239 24.68 30.9959 24.4695 30.702 24.3717L26.1765 22.8667C25.2471 22.5545 24.265 22.4295 23.287 22.499C22.309 22.5685 21.3544 22.831 20.4785 23.2715C20.3402 23.3393 20.2167 23.4337 20.1151 23.5494C20.0136 23.6651 19.9359 23.7998 19.8866 23.9457C19.8373 24.0915 19.8174 24.2457 19.8279 24.3993C19.8385 24.5529 19.8794 24.7029 19.9482 24.8407C20.0171 24.9784 20.1125 25.1012 20.229 25.2018C20.3455 25.3025 20.4807 25.3792 20.627 25.4273C20.7732 25.4755 20.9276 25.4942 21.0811 25.4824C21.2346 25.4706 21.3843 25.4286 21.5215 25.3587V25.3575Z" fill="#333333"/>
<path d="M39.6667 26.6478C39.9385 26.6478 39.6667 26.712 44.5667 25.0798C45.2055 24.8645 45.8808 24.7781 46.5533 24.8258C47.2258 24.8735 47.8822 25.0542 48.4843 25.3575C48.6215 25.4274 48.7712 25.4694 48.9247 25.4812C49.0782 25.493 49.2326 25.4743 49.3788 25.4261C49.5251 25.378 49.6603 25.3013 49.7768 25.2007C49.8933 25.1 49.9887 24.9772 50.0576 24.8395C50.1264 24.7018 50.1673 24.5518 50.1779 24.3982C50.1884 24.2445 50.1685 24.0904 50.1192 23.9445C50.0699 23.7986 49.9923 23.6639 49.8907 23.5482C49.7891 23.4325 49.6656 23.3381 49.5273 23.2703C48.6512 22.8299 47.6964 22.5673 46.7182 22.4979C45.74 22.4284 44.7578 22.5533 43.8282 22.8655L39.3038 24.374C39.0412 24.4612 38.8182 24.639 38.6745 24.8754C38.5309 25.1119 38.4759 25.3918 38.5195 25.665C38.5631 25.9383 38.7024 26.1871 38.9126 26.3671C39.1227 26.5472 39.39 26.6467 39.6667 26.6478Z" fill="#333333"/>
<path d="M30.2692 31.1255C30.1698 30.833 29.9585 30.5919 29.6816 30.455C29.4048 30.3181 29.0849 30.2966 28.7922 30.3952C28.7513 30.408 24.773 31.7053 21.7 29.4C21.4764 29.2333 21.2004 29.1523 20.9222 29.1715C20.644 29.1908 20.3818 29.3091 20.1833 29.505C19.7738 29.9285 19.2442 30.2167 18.6667 30.3333C18.3572 30.3333 18.0605 30.4562 17.8417 30.675C17.6229 30.8938 17.5 31.1906 17.5 31.5C17.5 31.8094 17.6229 32.1062 17.8417 32.325C18.0605 32.5437 18.3572 32.6667 18.6667 32.6667C19.5379 32.6199 20.3748 32.3122 21.0688 31.7835C21.245 31.8885 21.4188 31.9818 21.5985 32.0717C21.4421 32.3091 21.2383 32.5116 21 32.6667C20.6906 32.6667 20.3938 32.7896 20.175 33.0084C19.9562 33.2272 19.8333 33.5239 19.8333 33.8333C19.8333 35.2672 21.9882 35.8167 23.8852 32.8778C25.7647 33.2628 27.7118 33.1672 29.5447 32.6037C29.8363 32.5031 30.0763 32.2912 30.2121 32.0141C30.3478 31.7371 30.3684 31.4176 30.2692 31.1255Z" fill="#333333"/>
<path d="M48.3 29.4C45.2422 31.6925 41.2907 30.4232 41.209 30.3952C40.9161 30.2952 40.5956 30.3157 40.3178 30.4521C40.0401 30.5885 39.8279 30.8297 39.7279 31.1226C39.628 31.4154 39.6485 31.736 39.7849 32.0138C39.9213 32.2915 40.1625 32.5037 40.4553 32.6037C42.2889 33.1685 44.2352 33.2627 46.1148 32.8778C46.7075 33.7983 47.7237 35 49 35C49.3123 35.0016 49.6126 34.88 49.8358 34.6616C50.059 34.4432 50.1871 34.1456 50.1923 33.8333C50.1956 33.6813 50.1685 33.5301 50.1125 33.3887C50.0566 33.2473 49.973 33.1185 49.8666 33.0098C49.7602 32.9011 49.6332 32.8148 49.493 32.7559C49.3528 32.697 49.2022 32.6666 49.0502 32.6667C48.7916 32.5182 48.5712 32.3118 48.4062 32.0635C48.5812 31.9737 48.7562 31.8827 48.9312 31.7777C49.6242 32.3085 50.4618 32.6177 51.3333 32.6667C51.6428 32.6667 51.9395 32.5437 52.1583 32.3249C52.3771 32.1062 52.5 31.8094 52.5 31.5C52.5 31.1906 52.3771 30.8938 52.1583 30.675C51.9395 30.4562 51.6428 30.3333 51.3333 30.3333C50.7586 30.2174 50.2326 29.9298 49.8248 29.5085C49.6263 29.3099 49.3628 29.1896 49.0827 29.1697C48.8026 29.1498 48.5247 29.2315 48.3 29.4Z" fill="#333333"/>
<path d="M30.8525 40.6373C32.0798 41.4585 33.5233 41.8968 35 41.8968C36.4767 41.8968 37.9202 41.4585 39.1475 40.6373C39.275 40.5523 39.3845 40.443 39.4697 40.3157C39.5549 40.1883 39.6142 40.0454 39.6442 39.8952C39.6742 39.7449 39.6743 39.5902 39.6446 39.4399C39.6148 39.2896 39.5557 39.1466 39.4707 39.0192C39.3856 38.8917 39.2763 38.7822 39.149 38.697C39.0217 38.6118 38.8788 38.5525 38.7285 38.5224C38.5783 38.4924 38.4236 38.4923 38.2733 38.5221C38.1229 38.5519 37.98 38.611 37.8525 38.696C37.0082 39.2603 36.0155 39.5615 35 39.5615C33.9845 39.5615 32.9918 39.2603 32.1475 38.696C31.8901 38.5243 31.575 38.4618 31.2715 38.5224C30.968 38.5831 30.7011 38.7617 30.5293 39.0192C30.3576 39.2766 30.2952 39.5917 30.3558 39.8952C30.4164 40.1986 30.5951 40.4656 30.8525 40.6373Z" fill="#333333"/>
<path d="M42 47.6C41.9982 47.4066 41.9569 47.2157 41.8786 47.0389C41.8002 46.8621 41.6865 46.7032 41.5444 46.5721C41.4023 46.4409 41.2348 46.3402 41.0524 46.2762C40.8699 46.2122 40.6762 46.1863 40.4833 46.2C39.5162 46.2 36.6532 44.3333 35 44.3333C33.3247 44.3333 30.5013 46.2 29.5225 46.2C29.3292 46.1856 29.135 46.2111 28.9519 46.2747C28.7688 46.3384 28.6007 46.439 28.458 46.5702C28.3153 46.7014 28.201 46.8605 28.1222 47.0376C28.0435 47.2148 28.0019 47.4062 28 47.6C28 49.2462 31.2958 51.3333 35 51.3333C38.7042 51.3333 42 49.245 42 47.6ZM35 46.6667C36.2553 47.0342 37.4757 47.5137 38.6458 48.0993C37.5215 48.6907 36.2703 48.9997 35 48.9997C33.7297 48.9997 32.4784 48.6907 31.3542 48.0993C32.5237 47.5128 33.744 47.0333 35 46.6667Z" fill="#333333"/>
<path d="M36.1667 53.6667H33.8333C33.5239 53.6667 33.2272 53.7896 33.0084 54.0084C32.7896 54.2272 32.6667 54.5239 32.6667 54.8333C32.6667 55.1428 32.7896 55.4395 33.0084 55.6583C33.2272 55.8771 33.5239 56 33.8333 56H36.1667C36.4761 56 36.7728 55.8771 36.9916 55.6583C37.2104 55.4395 37.3333 55.1428 37.3333 54.8333C37.3333 54.5239 37.2104 54.2272 36.9916 54.0084C36.7728 53.7896 36.4761 53.6667 36.1667 53.6667Z" fill="#333333"/>
<path d="M15.1667 14C15.811 14 16.3333 13.4777 16.3333 12.8333C16.3333 12.189 15.811 11.6667 15.1667 11.6667C14.5223 11.6667 14 12.189 14 12.8333C14 13.4777 14.5223 14 15.1667 14Z" fill="#333333"/>
</g>
<defs>
<clipPath id="clip0">
<rect width="70" height="70" fill="white"/>
</clipPath>
</defs>
</svg>

<svg width="70" height="70" fill="none" xmlns="http://www.w3.org/2000/svg"><g clip-path="url(#clip0)" fill="#333"><path d="M12.063 48.373l-2.886-6.735a4.026 4.026 0 00-7.366 3.253c5.316 11.696 5.575 12.963 7.933 15.318l9.45 9.45c.219.22.515.342.825.342h12.648a1.167 1.167 0 001.166-1.166 29.41 29.41 0 00-.386-7.076 16.44 16.44 0 003.106 0c-.503 2.135-.386 3.446-.386 7.074A1.167 1.167 0 0037.333 70h12.653c.31 0 .606-.123.825-.342l9.45-9.45c2.354-2.355 2.542-3.466 7.933-15.318a4.026 4.026 0 00-7.366-3.253l-2.891 6.736a5.925 5.925 0 00-4.646-.913c.54-1.324.998-2.68 1.372-4.06 2.316-.467 7.926-2.5 7.926-11.317 0-2.987-.52-6.67-3.492-7.075a31.718 31.718 0 004.72-21.965L63.35.913A1.167 1.167 0 0062.205 0H7.796a1.167 1.167 0 00-1.14.913l-.49 2.217a31.67 31.67 0 004.741 21.89c-2.942.438-3.452 4.11-3.452 7.068 0 8.82 5.615 10.85 7.933 11.317a35.283 35.283 0 001.378 4.071 5.914 5.914 0 00-4.702.898zM31.5 67.668H20.497l-9.1-9.107c-1.905-1.9-1.903-2.405-7.462-14.635a1.693 1.693 0 013.098-1.367c4.726 11.03 2.888 8.343 12.156 17.616a1.167 1.167 0 101.65-1.65c-6.391-6.39-6.693-6.566-7.667-8.059a3.536 3.536 0 014.509-.007 27.774 27.774 0 008.29 5.25c2.729.907 5.529 4.443 5.529 9.392v2.567zm1.117-8.371a10.428 10.428 0 00-5.907-5.803 22.927 22.927 0 01-6.3-3.827c-4.009-7.102-4.525-15.662-4.53-23.818C18.352 21.49 24.835 11.443 35 5.311c10.186 6.176 16.683 16.24 19.164 20.608-.019 8.283-.514 16.45-4.471 23.668a23.187 23.187 0 01-6.401 3.905 10.44 10.44 0 00-5.91 5.811 15.63 15.63 0 01-4.765-.008zm24.211-8.837c-.97 1.487-1.25 1.643-7.667 8.06a1.167 1.167 0 001.65 1.65c9.179-9.179 7.428-6.576 12.156-17.611a1.695 1.695 0 012.233-.865 1.694 1.694 0 01.865 2.232c-5.476 12.048-5.51 12.688-7.455 14.635l-9.107 9.107H38.5V65.1a11.22 11.22 0 012.322-7.013c2.735-3.42 3.608-.988 11.497-7.629a3.536 3.536 0 014.51.002zm3.428-18.376c0 5.875-2.848 7.977-4.965 8.73a67.093 67.093 0 001.176-12.6c1.079-.767 2.035-1.087 2.566-.83.286.137 1.223.887 1.223 4.7zm1.016-29.75a28.947 28.947 0 01-4.783 22.372c-.111-8.713-2.413-14.683-7.04-18.223a1.167 1.167 0 00-1.417 1.854c3.373 2.58 5.306 6.8 5.909 12.775-4.678-7.105-11.904-14.673-19.443-18.778h26.774zm-52.542 0h15.912a30.382 30.382 0 00-6.883 6.271 1.167 1.167 0 101.822 1.459 28.217 28.217 0 019.622-7.634c1.185.467 2.345.993 3.475 1.58-9.793 6.304-16.047 15.723-18.982 20.958A28.871 28.871 0 018.73 2.333zm1.057 29.75c0-3.818.933-4.567 1.225-4.705.52-.25 1.497.074 2.567.83a67.106 67.106 0 001.177 12.607c-2.117-.75-4.969-2.85-4.969-8.732z"/><path d="M21.521 25.358a5.103 5.103 0 013.918-.278l4.526 1.508a1.168 1.168 0 10.737-2.216l-4.526-1.505a7.422 7.422 0 00-5.697.404 1.167 1.167 0 101.043 2.088v-.002zm18.146 1.29c.271 0 0 .064 4.9-1.568a5.092 5.092 0 013.917.278 1.167 1.167 0 101.043-2.088 7.425 7.425 0 00-5.699-.404l-4.524 1.508a1.167 1.167 0 00.363 2.274zm-9.397 4.477a1.167 1.167 0 00-1.478-.73c-.04.013-4.019 1.31-7.092-.995a1.167 1.167 0 00-1.517.105 2.91 2.91 0 01-1.516.828 1.167 1.167 0 100 2.334 4.349 4.349 0 002.402-.884c.176.105.35.199.53.289a2.07 2.07 0 01-.599.595 1.167 1.167 0 00-1.167 1.166c0 1.434 2.155 1.984 4.052-.955 1.88.385 3.827.29 5.66-.274a1.167 1.167 0 00.724-1.479zM48.3 29.4c-3.058 2.293-7.01 1.023-7.091.995a1.167 1.167 0 10-.754 2.209c1.834.565 3.78.659 5.66.274C46.708 33.798 47.724 35 49 35a1.186 1.186 0 001.112-1.611 1.142 1.142 0 00-1.062-.722 1.922 1.922 0 01-.644-.604c.175-.09.35-.18.525-.285.693.53 1.53.84 2.402.889a1.167 1.167 0 000-2.334 2.896 2.896 0 01-1.508-.824A1.166 1.166 0 0048.3 29.4zM30.852 40.637a7.458 7.458 0 008.296 0 1.166 1.166 0 10-1.296-1.941 5.133 5.133 0 01-5.704 0 1.167 1.167 0 10-1.296 1.941zM42 47.6a1.418 1.418 0 00-1.517-1.4c-.967 0-3.83-1.867-5.483-1.867-1.675 0-4.499 1.867-5.477 1.867A1.418 1.418 0 0028 47.6c0 1.646 3.296 3.733 7 3.733s7-2.088 7-3.733zm-7-.933c1.255.367 2.476.847 3.646 1.432a7.831 7.831 0 01-7.292 0A21.69 21.69 0 0135 46.667zm1.167 7h-2.334a1.167 1.167 0 100 2.333h2.334a1.167 1.167 0 100-2.333zM15.167 14a1.167 1.167 0 100-2.333 1.167 1.167 0 000 2.333z"/></g><defs><clipPath id="clip0"><path fill="#fff" d="M0 0h70v70H0z"/></clipPath></defs></svg>
